!!!COM: Palestrina, Giovanni Perluigi da
!!!OPR: Missa Tu es Petrus (1601)
!!!OMD: Credo
!!!OTL: Et in Spiritum
**kern	**kern	**kern	**kern	**kern	**kern
*Ibass	*Itenor	*Itenor	*Icalto	*Icalto	*Icant
!Bassus	!Tenor 2	!Tenor 1	!Altus 2	!Altus 1	!Cantus
*clefF4	*clefGv2	*clefGv2	*clefG2	*clefG2	*clefG2
*k[]	*k[]	*k[]	*k[]	*k[]	*k[]
*G:mix	*G:mix	*G:mix	*G:mix	*G:mix	*G:mix
*M4/2	*M4/2	*M4/2	*M4/2	*M4/2	*M4/2
=131	=131	=131	=131	=131	=131
0r	0r	1G	1g	1b	1dd
.	.	2G	2g	2b	2dd
.	.	[2c	[2g	[2cc	[2ee
=132	=132	=132	=132	=132	=132
0r	0r	4c]	4g]	4cc]	4ee]
.	.	4c	4g	4cc	4ee
.	.	2d	2f#	2a	2dd
.	.	2e	2g	2g	2b
.	.	2e	2g	2e	2cc
=133	=133	=133	=133	=133	=133
1r	1r	2.d	2.a	2.f#	2.dd
.	.	4d	4b	4f#	4dd
1C	2r	2c	2cc	1g	1ee
.	2e	2c	2g	.	.
=134	=134	=134	=134	=134	=134
2C	2e	2c	2g	0r	0r
1F	1f	1c	1a	.	.
2G	[2e	2B	2g	.	.
=135	=135	=135	=135	=135	=135
1A	4e]	1c	2e	0r	0r
.	4d	.	.	.	.
.	1c	.	2f	.	.
1G	.	1d	1g	.	.
.	2B	.	.	.	.
=136	=136	=136	=136	=136	=136
2r	2c	0r	0r	1g	1ee
2c	2c	.	.	.	.
2B	2d	.	.	2g	2dd
[2c	[2e	.	.	[2g	[2cc
=137	=137	=137	=137	=137	=137
2c]	2e]	0r	0r	2g]	2cc]
2c	2e	.	.	2g	2cc
2A	2.f	.	.	2.a	2.cc
2F	.	.	.	.	.
.	4f	.	.	4a	4cc
=138	=138	=138	=138	=138	=138
2G	2d	0r	0r	2g	2b
1F	2.f	.	.	1a	1cc
.	4e	.	.	.	.
2G	[2d	.	.	2g	2b
=139	=139	=139	=139	=139	=139
1A	2d]	1r	1r	1e	1a
.	2c#	.	.	.	.
1D	1d	2r	2r	2f#	2a
.	.	[2d	[2f#	[2a	[2dd
=140	=140	=140	=140	=140	=140
0r	0r	2d]	2f#]	2a]	2dd]
.	.	2d	2f#	2b	2dd
.	.	1c	1g	1cc	1ee
=141	=141	=141	=141	=141	=141
0r	0r	2G	2g	2b	2dd
.	.	2c	2e	2g	2ee
.	.	2A	2e	2.a	2cc
.	.	2d	2f	.	2dd
.	.	.	.	4b	.
=142	=142	=142	=142	=142	=142
2r	2r	2c	2g	2cc	2ee
1G	1B	1d	1g	1b	1dd
2G	2B	2d	2g	2b	2dd
=143	=143	=143	=143	=143	=143
1G	1d	1B	1g	1.b	1dd
1E	1G	1e	1g	.	1ee
.	.	.	.	2g	.
=144	=144	=144	=144	=144	=144
0D	0d	1A	1.f	4a	0ff
.	.	.	.	4g	.
.	.	.	.	4f	.
.	.	.	.	4e	.
.	.	1B	.	4d	.
.	.	.	.	4c	.
.	.	.	4e	2d	.
.	.	.	4d	.	.
=145	=145	=145	=145	=145	=145
1C	1G	1c	2g	1e	1ee
.	.	.	2g	.	.
2r	2r	2r	2r	2r	2r
2C	2G	2e	2g	2cc	2ee
=146	=146	=146	=146	=146	=146
2G	2B	2d	2g	2b	2dd
2G	2B	2d	2g	2b	2dd
2G	2B	2G	2g	2b	2dd
2E	2e	2G	2g	2g	2ee
=147	=147	=147	=147	=147	=147
0D	1A	0d	1.f	4a	0ff
.	.	.	.	4g	.
.	.	.	.	4f	.
.	.	.	.	4e	.
.	1B	.	.	4d	.
.	.	.	.	4c	.
.	.	.	4e	2d	.
.	.	.	4d	.	.
=148	=148	=148	=148	=148	=148
0C	1c	1G	2g	2e	1ee
.	.	.	2g	1cc	.
.	2.g	2.c	1r	.	2.ee
.	.	.	.	2cc	.
.	4g	4c	.	.	4ee
=149	=149	=149	=149	=149	=149
0r	2g	2c	0r	2cc	2ee
.	2f	2d	.	2a	2dd
.	2e	2e	.	2g	2cc
.	2d	2f	.	2a	2dd
=150	=150	=150	=150	=150	=150
0r	1c	2g	0r	1cc	1ee
.	.	4a	.	.	.
.	.	2g	.	.	.
.	1d	.	.	1a	1dd
.	.	8f#	.	.	.
.	.	8e	.	.	.
.	.	2f#	.	.	.
=151	=151	=151	=151	=151	=151
2r	2G	2g	2r	1g	1b
2G	2d	2g	2b	.	.
2G	2d	2g	2b	1r	1r
2G	2d	2g	2b	.	.
=152	=152	=152	=152	=152	=152
1A	1c	2e	2cc	0r	0r
.	.	2.f	1a	.	.
2F	2c	.	.	.	.
.	.	4e	.	.	.
2G	2B	[2d	2g	.	.
=153	=153	=153	=153	=153	=153
2.E	2.G	2d]	2.g	1r	0r
.	.	2c#	.	.	.
4E	4G	.	4g	.	.
[1D	2A	[1d	1f#	2r	.
.	2d	.	.	2a	.
=154	=154	=154	=154	=154	=154
1D]	2f#	1d]	0r	2a	2r
.	2f#	.	.	2a	2dd
1r	2.g	1r	.	2.b	2dd
.	.	.	.	.	2dd
.	4f	.	.	4a	.
=155	=155	=155	=155	=155	=155
0r	2e	0r	0r	4g	2.ee
.	.	.	.	4g	.
.	2a	.	.	2.cc	.
.	.	.	.	.	4dd
.	2a	.	.	.	2cc
.	.	.	.	4b	.
.	2d	.	.	[2a	2dd
=156	=156	=156	=156	=156	=156
1r	1e	1r	1r	2a]	2b
.	.	.	.	2g#	2b
1D	2r	1f	2r	1a	1a
.	2d	.	2a	.	.
=157	=157	=157	=157	=157	=157
2.A	2.c	2.e	2.a	0r	0r
4A	4c	4e	4a	.	.
2A	2c	2e	2a	.	.
2B	2d	2d	2g	.	.
=158	=158	=158	=158	=158	=158
2c	2e	2c	2g	0r	0r
2A	2c	2e	2a	.	.
1G	2d	1g	1b-	.	.
.	2e	.	.	.	.
=159	=159	=159	=159	=159	=159
1F	1f	2c	1a	2r	2r
.	.	2a	.	2cc	2a
1r	1e	2a	1r	2cc	2.ee
.	.	2g	.	2b	.
.	.	.	.	.	4ee
=160	=160	=160	=160	=160	=160
0r	0r	2a	0r	2cc	2ee
.	.	2d	.	2a	2ff
.	.	2e	.	2g	2gg
.	.	2c	.	[2cc	2ee
=161	=161	=161	=161	=161	=161
1r	1r	1g	1r	2cc]	1dd
.	.	.	.	2b	.
[1F	2r	1a	2r	2cc	2cc
.	[2c	.	[2f	[2a	[2cc
=162	=162	=162	=162	=162	=162
2F]	2c]	2.A	2f]	2a]	2cc]
2F	2c	.	2f	2a	2cc
.	.	4A	.	.	.
2F	2c	2A	2a	2cc	2ff
2F	2c	2A	2a	2cc	2ff
=163	=163	=163	=163	=163	=163
1F	1f	1c	1a	1cc	1ff
1C	2g	1c	2g	1cc	1ee
.	[2G	.	2g	.	.
=164	=164	=164	=164	=164	=164
2G	2G]	2d	2g	2b	2dd
2G	2B	2d	1g	2g	2dd
1D	1A	1d	.	1a	1dd
.	.	.	2f#	.	.
=165	=165	=165	=165	=165	=165
1G	2G	1B	1g	2b	2dd
.	1g	.	.	1b	1dd
1r	.	1r	2r	.	.
.	2e	.	[2g	2g	2cc
=166	=166	=166	=166	=166	=166
0r	1d	0r	2g]	1a	1dd
.	.	.	2f#	.	.
.	1c	.	2g	1cc	1ee
.	.	.	2g	.	.
=167	=167	=167	=167	=167	=167
0r	2.A	0r	2.a	2.cc	2.ee
.	4A	.	4a	4cc	4ee
.	2e	.	1b	2g	2ee
.	2g	.	.	2g	2dd
=168	=168	=168	=168	=168	=168
0r	4c	0r	1cc	1.g	1ee
.	4d	.	.	.	.
.	4e	.	.	.	.
.	4f#	.	.	.	.
.	2g	.	2b	.	1dd
.	2f	.	2a	2a	.
=169	=169	=169	=169	=169	=169
0r	2e	0r	2g	2b	2ee
.	2c	.	1a	2cc	2ee
.	1e	.	.	1b	1ee
.	.	.	2g#	.	.
=170	=170	=170	=170	=170	=170
2r	2A	2r	1a	2cc	1ee
2A	2c	2e	.	2a	.
1F	1c	1f	1r	1a	1r
=171	=171	=171	=171	=171	=171
2C	2c	2e	0r	2g	0r
2C	2e	2g	.	2cc	.
2D	2d	2f	.	2a	.
2C	2g	2e	.	2cc	.
=172	=172	=172	=172	=172	=172
1.G	1g	2.d	0r	2.b	0r
.	.	4c	.	4a	.
.	1d	2B	.	2g	.
2F	.	4A	.	[2a	.
.	.	4B	.	.	.
=173	=173	=173	=173	=173	=173
1E	2e	4c	0r	4a]	0r
.	.	4B	.	4g	.
.	2c	4A	.	1g	.
.	.	4G	.	.	.
1D	1d	1A	.	.	.
.	.	.	.	2f#	.
=174	=174	=174	=174	=174	=174
2C	1e	2c	2r	2g	2r
2C	.	2c	2g	2cc	2ee
1F	1r	1A	1a	1cc	1ff
=175	=175	=175	=175	=175	=175
1C	0r	2c	2g	1cc	2ee
.	.	2e	2g	.	2gg
1r	.	2d	2a	1r	2ff
.	.	2c	2cc	.	2ee
=176	=176	=176	=176	=176	=176
0r	0r	2g	2.b	0r	2.dd
.	.	2d	.	.	.
.	.	.	4a	.	4cc
.	.	2e	2g	.	2b
.	.	[2f	[2a	.	4a
.	.	.	.	.	4b
=177	=177	=177	=177	=177	=177
1r	0r	4f]	4a]	1r	4cc
.	.	4g	4g	.	4b
.	.	2e	1g	.	4b
.	.	.	.	.	8a
.	.	.	.	.	8g
1D	.	2d	.	2r	1a
.	.	[2d	2f#	2a	.
=178	=178	=178	=178	=178	=178
2.G	1d	2d]	1g	1b	1g
.	.	2.g	.	.	.
4F	.	.	.	.	.
2.E	2.g	.	1G	1b	2r
.	.	4f	.	.	.
.	.	[2e	.	.	[2gg
4D	4f	.	.	.	.
=179	=179	=179	=179	=179	=179
0C	2.e	4e]	2.g	2.cc	4gg]
.	.	4d	.	.	4ff
.	.	2.c	.	.	2.ee
.	4d	.	4f	4cc	.
.	1c	.	1e	1g	.
.	.	8B	.	.	4dd
.	.	8A	.	.	.
.	.	[2G	.	.	[2cc
=180	=180	=180	=180	=180	=180
1G	2d	4G]	1d	2.g	2cc]
.	.	4A	.	.	.
.	1G	2B	.	.	2b
.	.	.	.	4f	.
1C	.	1G	1g	1e	1cc
.	[2c	.	.	.	.
=181	=181	=181	=181	=181	=181
[0G	2c]	[0G	[0g	[0d	[0dd
.	4B	.	.	.	.
.	4A	.	.	.	.
.	1B	.	.	.	.
=182	=182	=182	=182	=182	=182
0G]	0B	0G]	0g]	0d]	0dd]
==	==	==	==	==	==
*-	*-	*-	*-	*-	*-
!!!CDT: 1525/^1526/-1594/2/2
!!!OCY: Italia
!!!AGN: Mass (Paraphrase)
!!!AST: renaissance, vocal
!!!ASW: Antiphon
!!!PWK: Masses, Book 12
!!!RNB: Cadence finals: C
!!!YOR: Le Opere Complete, v. 29, p. 123
!!!YOO: Rome, Italy: Fratelli Scalera
!!!END: 1992//
!!!EED: John Miller
!!!YEC: Copyright 2000, John Miller
!!!YEN: United States of America
!!!YEM: Rights to all derivative electronic formats reserved.
!!!YEM: Refer to licensing agreement for further details.
!!!YEM: This file must be accompanied by the licensing agreement.
!!!YEM: A copy of the licensing agreement may be found at http://www.music-cog.ohio-state.edu/HumdrumDatabases/Palestrina/license.txt
!!!EMD: converted to Humdrum by Bret Aarden
